X:7
T:Kimberly Ann's
R:jig
C:Ian MacDougall
D:Ian MacDougall, From Foot Cape
Z:Paul Stewart Cranford (P.S.C.), <http://www.cranfordpub.com>
Q:288
L:1/8
M:6/8
K:E
EFE EGB|e2 f gbg|fec cec|BGE F2 e|
EFE EGB|eBe gbg|fec cec|1BGE E2 e:|2BGE E2||
|:a|gfe cBG|Bce gbg|fec cec|1BGE F2 a|
gfe cBG|Bce gbg|fec cec|BGE E2:|
[2BGE F2 e|EFE EGB|eBe gbg|fec cec|BGE E2 e|]
